X:65
T:Gingerbread Boy
C:Emory Lester (Emory Lester Set)
N:TablEdited by Steve Keating
L:1/8
Q:1/4=200
M:4/4
K:C
z2 [c2G2_B,2] [cGB,][cGB,] z2 | [c2G2_B,2] [c2G2B,2] [c2G2B,2] [c2G2B,2] | z2 [c2G2_B,2] [cGB,][cGB,] z2 | 
[c2G2_B,2] [c2G2B,2] [c2G2B,2] [c2G2B,2] | z2 [c2G2_B,2] [cGB,][cGB,] z2 | [c2G2_B,2] [c2G2B,2] [c2G2B,2] [c2G2B,2] | 
z2 [c2G2_B,2] [cGB,][cGB,] z2 | [c2G2_B,2] [c2G2B,2] [c4G4B,4] | Gc AF G2 zF | 
EG DC z4 | z2 [c2G2_B,2] [cGB,][cGB,] z2 | [c2G2_B,2] [c2G2B,2] [c2G2B,2] [c2G2B,2] | 
CF AF ^F^G _B^c | cA FG z4 | z2 [c2G2_B,2] [cGB,][cGB,] z2 | [c2G2_B,2] [c3G3B,3]c d2 | 
^d=d ^c=c z2 z_B | A^G =G2 z^D =D^C | C2 z_B, A,^G, =G,2 | z2 [c2G2_B,2] [cGB,][cGB,] z2 | 
[c2G2_B,2] [c2G2B,2] [c2G2B,2] [c2G2B,2] | z2 [c2G2_B,2] [cGB,][cGB,] z2 | [c2G2_B,2] [c2G2B,2] [c4G4B,4] | 
Gc AF G2 zF | EG DC z4 | z2 [c2G2_B,2] [cGB,][cGB,] z2 | [c2G2_B,2] [c2G2B,2] [c2G2B,2] [c2G2B,2] | 
CF AF ^F^G _B^c | cA FG z4 | z2 [c2G2_B,2] [cGB,][cGB,] z2 | [c2G2_B,2] [c3G3B,3]c d2 | 
^d=d ^c=c z2 z_B | A^G =G2 z^D =D^C | C2 z_B, A,^G, =G,2 | z2 [c2G2_B,2] [cGB,][cGB,] z2 | 
[c2G2_B,2] [c2G2B,2] [c2G2B,2] [c2G2B,2] | z2 [c2G2_B,2] [cGB,][cGB,] z2 | [c8G8_B,8] | 
"C"zg ag a/_b/g a^d | "F"g2 d/^d/c =d_B cB | "C"cz2D (3EFG cB | _BD g2 zg ag | 
"F"ac' z2 zc' d'c' | f'2 ^d'/e'/c' ^f/g/c' gf | "C"fc e/f/e cG zG | Ac A/G/z2D F^F | 
"G"Ad ^c=c AF zc | BG DC B,C DF | "C"EC B,_B, GF/G/ F/G/z | zD FD (3G^F=F (3CB,_B, | 
(3G^F=F (3CB,_B, (3G^F=F (3^G=G^F | (3"F"A^G=G (3D^C=C (3A^G=G (3^G=GF | (3"C"G^F=F (3FE^D (3EDC =DC | 
B,_B, G2 G/A/c d[fF] | "F"z[fF] z[fF] z4 | [c'c][bB] z[c'c] z[d'd] z[^d'^d] | 
"C"z[e'e] z4 z[c'c] | zg ag ac' ac | "G"^de ag (3_bag ag | a/_b/g af g^d/=d/ z2 | 
"C"zc (3^deg ac' z2 | (3gac' d'f' (3^d'e'c' ag | c'2 (3c'gc' e'e' (3c'gc' | "F"^d'd' (3c'gc' (3=d'c'd' (3c'gc' | 
"C"f'f' (3c'gc' (3^d'e'c' ag | c'g ^f=f ^d/e/c' bd' | "F"c'g/c/ z[c'c] zg ag | 
a/_b/g a^d gc d/e/g | "C"ac' c2 G[d'd] z[^d'^d] | z[e'e] z[^d'^d] z[e'e] z[f'f] | 
"G"z[^f'^f] z[=f'=f] z[^f'^f] z[g'g] | z[^f'^f] z[=f'=f] z2 d'^d' | "C"z[c'c] z2 [_b2_B2] z[fF] | 
[gG]f z2 [^d2^D2] [d2D2] | c8 | 


